svgs/sharp-solid/building-wheat.svg

<svg xmlns="http://www.w3.org/2000/svg" viewBox="0 0 640 512"><!--! Font Awesome Pro 6.4.0 by @fontawesome - https://fontawesome.com License - https://fontawesome.com/license (Commercial License) Copyright 2023 Fonticons, Inc. --><path d="M0 0H384V512H240V384H144V512H0V0zM128 224H64v64h64V224zm32 0v64h64V224H160zm160 0H256v64h64V224zM64 96v64h64V96H64zm160 0H160v64h64V96zm32 0v64h64V96H256zm384 96v16c0 44.2-35.8 80-80 80H544V272c0-44.2 35.8-80 80-80h16zm0 128c0 44.2-35.8 80-80 80H544V384c0-44.2 35.8-80 80-80h16v16zm0 112c0 44.2-35.8 80-80 80H544V496c0-44.2 35.8-80 80-80h16v16zM512 496v16H496c-44.2 0-80-35.8-80-80V416h16c44.2 0 80 35.8 80 80zm0-96H496c-44.2 0-80-35.8-80-80V304h16c44.2 0 80 35.8 80 80v16zm0-128v16H496c-44.2 0-80-35.8-80-80V192h16c44.2 0 80 35.8 80 80zM552 32V56 160v24H504V160 56 32l48 0zm72 64v32 24H576V128 96 72h48V96zM480 72V96v32 24l-48 0V128 96 72h48z"/></svg>

<svg xmlns="http://www.w3.org/2000/svg" viewBox="0 0 640 512"><!--! Font Awesome Pro 6.6.0 by @fontawesome - https://fontawesome.com License - https://fontawesome.com/license (Commercial License) Copyright 2024 Fonticons, Inc. --><path d="M0 0L384 0l0 512-144 0 0-128-96 0 0 128L0 512 0 0zM128 224l-64 0 0 64 64 0 0-64zm32 0l0 64 64 0 0-64-64 0zm160 0l-64 0 0 64 64 0 0-64zM64 96l0 64 64 0 0-64L64 96zm160 0l-64 0 0 64 64 0 0-64zm32 0l0 64 64 0 0-64-64 0zm384 96l0 16c0 44.2-35.8 80-80 80l-16 0 0-16c0-44.2 35.8-80 80-80l16 0zm0 128c0 44.2-35.8 80-80 80l-16 0 0-16c0-44.2 35.8-80 80-80l16 0 0 16zm0 112c0 44.2-35.8 80-80 80l-16 0 0-16c0-44.2 35.8-80 80-80l16 0 0 16zM512 496l0 16-16 0c-44.2 0-80-35.8-80-80l0-16 16 0c44.2 0 80 35.8 80 80zm0-96l-16 0c-44.2 0-80-35.8-80-80l0-16 16 0c44.2 0 80 35.8 80 80l0 16zm0-128l0 16-16 0c-44.2 0-80-35.8-80-80l0-16 16 0c44.2 0 80 35.8 80 80zM552 32l0 24 0 104 0 24-48 0 0-24 0-104 0-24 48 0zm72 64l0 32 0 24-48 0 0-24 0-32 0-24 48 0 0 24zM480 72l0 24 0 32 0 24-48 0 0-24 0-32 0-24 48 0z"/></svg>
